X: 1
T: Flying Squirrel
R: reel
M: 4/4
L: 1/8
K: Fmaj
K: Fmix
B,CEB, CEc2-|ccBA F3c|ec~c2 cBAF|GABc B2A2|
B,CEB, CEc2-|ccBA F3c|ec~c2 cBAc|1 fgfe dBF2:|2 fgfe dBFB]|
[K:F]|:c2gc fecB-|B2gB fecA-|A2gA fecB-|B2fB gfec-|
c2gc fecB-|B2gB fecA-|A2gA fecB-|1 B2fB gfec-:|2 B2fB gfe2||

